svgs/duotone/circle-envelope.svg

<svg xmlns="http://www.w3.org/2000/svg" viewBox="0 0 512 512"><!-- Font Awesome Pro 6.0.0-alpha2 by @fontawesome - https://fontawesome.com License - https://fontawesome.com/license (Commercial License) --><defs><style>.fa-secondary{opacity:.4}</style></defs><path d="M256 16C123.451 16 16 123.451 16 256S123.451 496 256 496S496 388.549 496 256S388.549 16 256 16ZM384 320C384 337.672 369.674 352 352 352H160C142.326 352 128 337.672 128 320V192C128 174.326 142.326 160 160 160H352C369.674 160 384 174.326 384 192V320Z" class="fa-secondary"/><path d="M352 160H160C142.326 160 128 174.326 128 192V203.566L256 254.766L384 203.566V192C384 174.326 369.674 160 352 160ZM256 288C253.969 288 251.969 287.625 250.062 286.859L128 238.035V320C128 337.672 142.326 352 160 352H352C369.674 352 384 337.672 384 320V238.035L261.938 286.859C260.031 287.625 258.031 288 256 288Z" class="fa-primary"/></svg>

<svg xmlns="http://www.w3.org/2000/svg" viewBox="0 0 512 512"><!--! Font Awesome Pro 6.3.0 by @fontawesome - https://fontawesome.com License - https://fontawesome.com/license (Commercial License) Copyright 2023 Fonticons, Inc. --><defs><style>.fa-secondary{opacity:.4}</style></defs><path class="fa-primary" d="M352 160H160C142.3 160 128 174.3 128 192v11.57l128 51.2l128-51.2V192C384 174.3 369.7 160 352 160zM256 288C253.1 288 251.1 287.6 250.1 286.9L128 238V320c0 17.67 14.33 32 32 32h192c17.67 0 32-14.33 32-32V238l-122.1 48.82C260 287.6 258 288 256 288z"/><path class="fa-secondary" d="M256 0C114.6 0 0 114.6 0 256s114.6 256 256 256s256-114.6 256-256S397.4 0 256 0zM384 320c0 17.67-14.33 32-32 32H160c-17.67 0-32-14.33-32-32V192c0-17.67 14.33-32 32-32h192c17.67 0 32 14.33 32 32V320z"/></svg>
